X: 17700
T: Holy Land, The
R: reel
M: 4/4
K: Dmajor
~B3 d (3AAA Bc|d ~F3 DFA=c|BG (3GGG ABdf|af (3efg fdd:|
(3fff df dfaf|gfed (3Bcd eg|f2 df dfaf|gfeg fdde|
f2 df dfaf|gfed cdec|dfaf g2 ag|(3fgf eg fdd||

